src/assets/github.svg

<svg xmlns="http://www.w3.org/2000/svg"  viewBox="0 0 24 24" width="48px" height="48px"><path d="M 12 2 C 6.476563 2 2 6.476563 2 12 C 2 17.523438 6.476563 22 12 22 C 17.523438 22 22 17.523438 22 12 C 22 6.476563 17.523438 2 12 2 Z M 12 4 C 16.410156 4 20 7.589844 20 12 C 20 12.46875 19.953125 12.929688 19.875 13.375 C 19.628906 13.320313 19.265625 13.253906 18.84375 13.25 C 18.53125 13.246094 18.140625 13.296875 17.8125 13.34375 C 17.925781 12.996094 18 12.613281 18 12.21875 C 18 11.257813 17.53125 10.363281 16.78125 9.625 C 16.988281 8.855469 17.191406 7.535156 16.65625 7 C 15.074219 7 14.199219 8.128906 14.15625 8.1875 C 13.667969 8.070313 13.164063 8 12.625 8 C 11.933594 8 11.273438 8.125 10.65625 8.3125 L 10.84375 8.15625 C 10.84375 8.15625 9.964844 6.9375 8.34375 6.9375 C 7.777344 7.507813 8.035156 8.953125 8.25 9.6875 C 7.484375 10.417969 7 11.28125 7 12.21875 C 7 12.546875 7.078125 12.859375 7.15625 13.15625 C 6.878906 13.125 5.878906 13.03125 5.46875 13.03125 C 5.105469 13.03125 4.542969 13.117188 4.09375 13.21875 C 4.03125 12.820313 4 12.414063 4 12 C 4 7.589844 7.589844 4 12 4 Z M 5.46875 13.28125 C 5.863281 13.28125 7.0625 13.421875 7.21875 13.4375 C 7.238281 13.492188 7.257813 13.542969 7.28125 13.59375 C 6.851563 13.554688 6.019531 13.496094 5.46875 13.5625 C 5.101563 13.605469 4.632813 13.738281 4.21875 13.84375 C 4.1875 13.71875 4.148438 13.597656 4.125 13.46875 C 4.5625 13.375 5.136719 13.28125 5.46875 13.28125 Z M 18.84375 13.5 C 19.242188 13.503906 19.605469 13.570313 19.84375 13.625 C 19.832031 13.691406 19.796875 13.746094 19.78125 13.8125 C 19.527344 13.753906 19.109375 13.667969 18.625 13.65625 C 18.390625 13.652344 18.015625 13.664063 17.6875 13.6875 C 17.703125 13.65625 17.707031 13.625 17.71875 13.59375 C 18.058594 13.546875 18.492188 13.496094 18.84375 13.5 Z M 6.09375 13.78125 C 6.65625 13.785156 7.183594 13.824219 7.40625 13.84375 C 7.929688 14.820313 8.988281 15.542969 10.625 15.84375 C 10.222656 16.066406 9.863281 16.378906 9.59375 16.75 C 9.359375 16.769531 9.113281 16.78125 8.875 16.78125 C 8.179688 16.78125 7.746094 16.160156 7.375 15.625 C 7 15.089844 6.539063 15.03125 6.28125 15 C 6.019531 14.96875 5.929688 15.117188 6.0625 15.21875 C 6.824219 15.804688 7.097656 16.5 7.40625 17.125 C 7.683594 17.6875 8.265625 18 8.90625 18 L 9.03125 18 C 9.011719 18.109375 9 18.210938 9 18.3125 L 9 19.40625 C 6.691406 18.472656 4.933594 16.5 4.28125 14.0625 C 4.691406 13.960938 5.152344 13.855469 5.5 13.8125 C 5.660156 13.792969 5.863281 13.777344 6.09375 13.78125 Z M 18.625 13.90625 C 19.074219 13.917969 19.472656 14.003906 19.71875 14.0625 C 19.167969 16.132813 17.808594 17.855469 16 18.90625 L 16 18.3125 C 16 17.460938 15.328125 16.367188 14.375 15.84375 C 15.957031 15.554688 16.988281 14.863281 17.53125 13.9375 C 17.910156 13.910156 18.355469 13.898438 18.625 13.90625 Z M 12.5 18 C 12.773438 18 13 18.226563 13 18.5 L 13 19.9375 C 12.671875 19.980469 12.339844 20 12 20 L 12 18.5 C 12 18.226563 12.226563 18 12.5 18 Z M 10.5 19 C 10.773438 19 11 19.226563 11 19.5 L 11 19.9375 C 10.664063 19.894531 10.324219 19.832031 10 19.75 L 10 19.5 C 10 19.226563 10.226563 19 10.5 19 Z M 14.5 19 C 14.742188 19 14.953125 19.175781 15 19.40625 C 14.675781 19.539063 14.34375 19.660156 14 19.75 L 14 19.5 C 14 19.226563 14.226563 19 14.5 19 Z"/></svg>

<svg xmlns="http://www.w3.org/2000/svg" width="48" height="48" viewBox="0 0 24 24"><path d="M12 2C6.477 2 2 6.477 2 12s4.477 10 10 10 10-4.477 10-10S17.523 2 12 2m0 2c4.41 0 8 3.59 8 8 0 .469-.047.93-.125 1.375a5 5 0 0 0-1.031-.125c-.313-.004-.703.047-1.032.094.114-.348.188-.73.188-1.125 0-.961-.469-1.856-1.219-2.594.207-.77.41-2.09-.125-2.625-1.582 0-2.457 1.129-2.5 1.188A6.5 6.5 0 0 0 12.625 8c-.691 0-1.352.125-1.969.313l.188-.157s-.88-1.219-2.5-1.219c-.567.57-.309 2.016-.094 2.75C7.484 10.419 7 11.282 7 12.22c0 .328.078.64.156.937-.277-.031-1.277-.125-1.687-.125-.364 0-.926.086-1.375.188A8 8 0 0 1 4 12c0-4.41 3.59-8 8-8m-6.531 9.281c.394 0 1.593.14 1.75.156q.029.081.062.157c-.43-.04-1.261-.098-1.812-.031-.367.042-.836.175-1.25.28-.032-.124-.07-.245-.094-.374.438-.094 1.012-.188 1.344-.188m13.375.219c.398.004.761.07 1 .125-.012.066-.047.121-.063.188a5.8 5.8 0 0 0-1.156-.157c-.234-.004-.61.008-.937.031.015-.03.019-.062.03-.093.34-.047.774-.098 1.126-.094m-12.75.281c.562.004 1.09.043 1.312.063.524.976 1.582 1.699 3.219 2a3.2 3.2 0 0 0-1.031.906 9 9 0 0 1-.719.031c-.695 0-1.129-.62-1.5-1.156C7 15.09 6.539 15.031 6.281 15c-.261-.031-.351.117-.218.219.761.586 1.035 1.281 1.343 1.906.278.563.86.875 1.5.875h.125c-.02.11-.031.21-.031.313v1.093a8 8 0 0 1-4.719-5.343c.41-.102.871-.208 1.219-.25.16-.02.363-.036.594-.032m12.531.125c.45.012.848.098 1.094.156A7.98 7.98 0 0 1 16 18.907v-.593c0-.852-.672-1.946-1.625-2.47 1.582-.288 2.613-.98 3.156-1.905a12 12 0 0 1 1.094-.032M12.5 18c.273 0 .5.227.5.5v1.438A8 8 0 0 1 12 20v-1.5c0-.273.227-.5.5-.5m-2 1c.273 0 .5.227.5.5v.438a9 9 0 0 1-1-.188v-.25c0-.273.227-.5.5-.5m4 0c.242 0 .453.176.5.406a8 8 0 0 1-1 .344v-.25c0-.273.227-.5.5-.5"/></svg>
